X:114
T: HORCHT IHR LIEBEN LEUTE
N: F0233
O: Europa, Mitteleuropa, Deutschland
R: Jugend - Lied
M: 2/4
L: 1/8
K: Eb
 | E2E2 | eeBB
GGFF | E2z2
E2E2 | eeBB
GGFF | E2z2
BBFB | cdB2
E2e2 | E2z2
c2B2 | E2z2

